X: 176
T: Ba cong
L: 1/8
M: 2/4
K: D
e> f e d [I:setbarnb 1]| 
eB2A | 
B> c B E | 
e> f e d | 
eB2A | 
B> c B E | 
A2B2 | 
AE2d | 
B2d2 | 
e c B A | 
BG2A | 
B d A F | 
AE2D | 
E4 |]

@@@ Tune index: 9050
